X:1
T:# / 2 haydn: psalm 61, long life shall israel's king behold
%%score [ 1 2 3 ]
L:1/8
Q:1/4=160
M:3/2
K:Eb
V:1 treble nm="Soprano"
V:2 treble nm="Alto"
V:3 bass nm="Basso"
V:1
 B4 | %1
w: Long|
w: Safe|
w: So|
 e8"^Psalm 61""^Long life shall Israel's king behold""^(""^from""^: Six english Psalms)" d2 c2 | %2
w: life shall *|
w: in thy *|
w: shall thy *|
 (B6 A2) G4 | F8"^Joseph Haydn""^1732 - 1809" (G2 A2) |{A} G8"^," B4 | e8 d4 | (c6 d2) (e2 c2) | %7
w: Is- ra- el's|king be- *|hold, and|a- ges|count * on *|
w: pre- * sence|let him *|stand, and|share the|bles- * sings *|
w: love * a-|wake my *|song, thy|name the|wil- * ling *|
 B8 =A4 | B8"^," d4 | (e6 g2) (f2 e2) | (e4 d4) (c2 B2) | B8 (A2 G2) | (G4 F4)"^," F4 | %13
w: a- ges|roll'd; with|last- * ing *|joy * thy *|ser- vant's *|eyes * shall|
w: of thy|hand; his|dwel- * ling *|let * thy *|thruth de *|fend, * thy|
w: note pro-|long, while|warm'd * with *|zeal, * my *|vows I *|pay, * and|
 (G6 A2) B4 | (c6 !courtesy!=d2) e4 | (f4 e4) d4 | !fermata!e8 |] %17
w: see * his|chil- * dren's|chil- * \-dren|rise.|
w: mer- * cy|on- * his|steps * at-|tend.|
w: bless * thee|to * my|la- * test|day.|
V:2
 G4 | G8 A4 | (G6 F2) E4 | (E4 D4) (E2 F2) |{F} E8"^," (G2 F2) | (E2 F2 G2 A2) B4 | (G6 F2) E4 | %7
w: Long|life shall|Is- ra- el's|king * be- *|hold, and *|a- * * * ges|count * on|
w: Safe|in thy|pre- * sence|let * him *|stand, and *|share * * * the|bles- * sings|
w: So|shall thy|love * a-|wake * my *|song, thy *|name * * * the|wil- * ling|
 D8 C4 | D8"^," (B2 !courtesy!_A2) | G8 =A4 | B8 (!courtesy!_A2 G2) | G8 (F2 E2) | (E4 D4)"^," D4 | %13
w: a- ges|roll'd; with *|last- ing|joy thy *|ser- vant's *|eyes * shall|
w: of thy|hand; his *|dwel- ling|let thy *|truth de- *|fend, * thy|
w: note pro-|long, while *|warm'd with|zeal, thy *|vows I *|pay, * and|
 (E6 F2) G4 | A8 (B2 e2) | (c2 A2) G4 F4 | !fermata!G8 |] %17
w: see * his|chil- dren's *|chil- * * \-dren|rise.|
w: mer- * cy|on his *|steps * * at-|tend.|
w: bless * the|to my *|la- * * test|day.|
V:3
 E,4 | E,8 E,4 | (E,6 F,2) G,4 | (A,4 B,4) B,4 | E,8"^," (E2 D2) | C8 B,4 | (E,6 D,2) (C,2 E,2) | %7
w: Long|life shall|Is- ra- el's|king * be-|hold, and *|a- ges|count * on *|
w: Safe|in thy|pre- * sence|let * him|stand, and *|share the|bles- * sings *|
w: So|shall thy|love * a-|wake * my|song, thy *|name the|wil- * ling *|
 F,8 F,4 | B,,8"^," B,4 | C8 F,4 | B,8 D,4 | (E,6 F,2) (G,2 A,2) | B,6"^," F,2 B,2 A,2 | %13
w: a- ges|roll'd; with|last- ing|joy thy|ser- * vant's *|eyes shall see his|
w: of thy|hand; his|dwel- ling|let thy|truth * de- *|fend, thy mer- cy|
w: note pro-|long, while|warm'd with|zeal, my|vows * I *|pay, and bless thee|
 G,2 F,2 E,2 E,2 E2 _D2 | C2 B,2 (A,2 F,2) (G,2 E,2) | (A,4 B,4) B,,4 | !fermata!E,8 |] %17
w: chil- dren's chil- dren rise, shall|see his chil- * dren's *|chil- * dren|rise.|
w: on his steps at- tend,. thy|mer- cy on- * his *|steps * at-|tend..|
w: to~ my la- test day, and|bless thee to * my *|la- * test|day.|

